resources/haticons/SVG/swap_horizontal_circle.svg

<!-- Generated by IcoMoon.io -->
<svg version="1.1" xmlns="http://www.w3.org/2000/svg" width="24" height="24" viewBox="0 0 24 24">
<title>swap_horizontal_circle</title>
<path d="M9 17.484v-2.484h3.984v-2.016h-3.984v-2.484l-3.516 3.516zM15 6.516v2.484h-3.984v2.016h3.984v2.484l3.516-3.516zM21.984 12q0 4.125-2.93 7.055t-7.055 2.93-7.055-2.93-2.93-7.055 2.93-7.055 7.055-2.93 7.055 2.93 2.93 7.055z"></path>
</svg>

<svg xmlns="http://www.w3.org/2000/svg" width="24" height="24"><path d="M9 17.484V15h3.984v-2.016H9V10.5l-3.516 3.516zm6-10.968V9h-3.984v2.016H15V13.5l3.516-3.516zM21.984 12q0 4.125-2.93 7.055t-7.055 2.93-7.055-2.93T2.014 12t2.93-7.055 7.055-2.93 7.055 2.93T21.984 12z"/></svg>
